X: 42680
T: Whistler And His Dog, The
R: jig
M: 6/8
K: Cmajor
G3|g2e cBA|B2A G2^G|A2E ^D2E|(G3 G)ED|
C2D EGA|c2A G2A|BdB A2d|(d3 d2)G|
g2e cBA|B2A G2^G|A2(e f2e)|(A3 A2)B|
cAB cAB|cd^d efg|(d3 d3)|(c3 c3)||
K:F
|:C3 F3|EDE C3|F2A c2d|ede c3|
f2f d2d|cAG FGA|1 G3 D3|E3 C3:|2 (G3 G3)|(F3 G3)||

